image/icons/instagram-brown.svg

<svg width="30" height="30" viewBox="0 0 30 30" fill="none" xmlns="http://www.w3.org/2000/svg">
<path d="M14.9151 10.0361C12.228 10.0361 10.0351 12.229 10.0351 14.9161C10.0351 17.6032 12.228 19.7961 14.9151 19.7961C17.6023 19.7961 19.7952 17.6032 19.7952 14.9161C19.7952 12.229 17.6023 10.0361 14.9151 10.0361ZM29.5516 14.9161C29.5516 12.8953 29.5699 10.8927 29.4564 8.87555C29.3429 6.53254 28.8084 4.45313 27.0951 2.73981C25.3781 1.02283 23.3023 0.491989 20.9593 0.3785C18.9385 0.265011 16.936 0.283315 14.9188 0.283315C12.8979 0.283315 10.8954 0.265011 8.87823 0.3785C6.53523 0.491989 4.45581 1.02649 2.74249 2.73981C1.02551 4.45679 0.494675 6.53254 0.381185 8.87555C0.267696 10.8964 0.286001 12.8989 0.286001 14.9161C0.286001 16.9333 0.267696 18.9395 0.381185 20.9567C0.494675 23.2997 1.02917 25.3791 2.74249 27.0924C4.45948 28.8094 6.53523 29.3402 8.87823 29.4537C10.8991 29.5672 12.9016 29.5489 14.9188 29.5489C16.9396 29.5489 18.9422 29.5672 20.9593 29.4537C23.3023 29.3402 25.3818 28.8057 27.0951 27.0924C28.8121 25.3754 29.3429 23.2997 29.4564 20.9567C29.5735 18.9395 29.5516 16.9369 29.5516 14.9161ZM14.9151 22.4247C10.76 22.4247 7.40653 19.0713 7.40653 14.9161C7.40653 10.7609 10.76 7.40751 14.9151 7.40751C19.0703 7.40751 22.4237 10.7609 22.4237 14.9161C22.4237 19.0713 19.0703 22.4247 14.9151 22.4247ZM22.7312 8.85358C21.7611 8.85358 20.9776 8.07014 20.9776 7.09999C20.9776 6.12984 21.7611 5.3464 22.7312 5.3464C23.7014 5.3464 24.4848 6.12984 24.4848 7.09999C24.4851 7.33036 24.44 7.55852 24.3519 7.7714C24.2639 7.98429 24.1348 8.17772 23.9719 8.34061C23.809 8.5035 23.6155 8.63266 23.4027 8.72069C23.1898 8.80871 22.9616 8.85387 22.7312 8.85358Z" fill="#592F0A"/>
</svg>

<svg width="30" height="30" fill="none" xmlns="http://www.w3.org/2000/svg"><path d="M14.915 10.036a4.89 4.89 0 0 0-4.88 4.88 4.89 4.89 0 0 0 4.88 4.88 4.89 4.89 0 0 0 4.88-4.88 4.89 4.89 0 0 0-4.88-4.88zm14.637 4.88c0-2.02.018-4.023-.096-6.04-.113-2.343-.648-4.423-2.36-6.136C25.377 1.023 23.301.492 20.958.378 18.94.265 16.936.283 14.92.283c-2.021 0-4.024-.018-6.04.096-2.344.113-4.423.647-6.137 2.36C1.026 4.458.495 6.534.382 8.877c-.114 2.02-.096 4.023-.096 6.04 0 2.017-.018 4.023.095 6.04.114 2.344.648 4.423 2.361 6.136 1.717 1.717 3.793 2.248 6.136 2.362 2.021.113 4.024.095 6.04.095 2.022 0 4.024.018 6.041-.095 2.343-.114 4.423-.648 6.136-2.362 1.717-1.717 2.248-3.792 2.361-6.135.117-2.018.096-4.02.096-6.04zm-14.637 7.509a7.498 7.498 0 0 1-7.508-7.509 7.498 7.498 0 0 1 7.508-7.508 7.498 7.498 0 0 1 7.509 7.508 7.498 7.498 0 0 1-7.509 7.509zm7.816-13.571c-.97 0-1.753-.784-1.753-1.754s.783-1.754 1.753-1.754a1.751 1.751 0 0 1 1.62 2.425 1.75 1.75 0 0 1-1.62 1.083z" fill="#592F0A"/></svg>
